src/icons/blockchains/dark/karura.svg

<svg width="24" height="24" viewBox="0 0 24 24" fill="none" xmlns="http://www.w3.org/2000/svg">
  <rect width="24" height="24" rx="12" fill="#080530" />
  <mask
    id="mask0_1131_18486"
    style="mask-type: alpha"
    maskUnits="userSpaceOnUse"
    x="4"
    y="4"
    width="16"
    height="16"
  >
    <rect x="4" y="4" width="16" height="16" fill="#D9D9D9" />
  </mask>
  <g mask="url(#mask0_1131_18486)">
    <path
      d="M15.3236 5.04883L10.6141 9.17515C10.1022 9.61725 9.43677 9.86286 8.82249 9.86286H7.38917V5.04883H4.88086V18.8032H6.26299C7.03084 18.8032 7.7475 18.3611 8.15702 17.7225C8.41296 17.2805 8.56653 16.3962 8.46415 15.8067C8.41296 14.4804 8.20821 14.1365 8.20821 14.1365C8.20821 15.0699 7.2356 15.119 7.2356 15.119C7.95226 14.4804 7.54273 13.9401 7.54273 13.9401C6.26299 14.7751 5.95585 13.8909 5.95585 13.7927C6.00704 13.8418 6.36537 14.0874 7.08203 13.2032C7.79869 12.2699 8.7713 10.6488 9.38557 10.2558C9.99985 9.81374 10.6141 9.86286 10.6141 9.86286C10.6141 9.86286 10.9213 9.42076 11.8427 9.0769C12.7641 8.73304 13.276 9.22427 13.276 9.22427C12.4058 9.91199 11.126 11.0909 11.0749 12.712C11.0237 14.0383 14.0439 16.3471 13.4808 19.7366C13.7879 18.9506 13.9415 18.2138 13.7879 17.2313C13.6855 16.4454 13.1736 14.8734 13.1736 14.8734L16.0403 18.6558H19.214L12.9689 10.4523L19.1628 5.04883H15.3236Z"
      fill="white"
    />
  </g>
</svg>

<svg
  xmlns="http://www.w3.org/2000/svg"
  width="24"
  height="24"
  fill="none"
  xmlns:v="https://vecta.io/nano"
>
  <rect width="24" height="24" rx="12" fill="#080530" />
  <mask id="A" maskUnits="userSpaceOnUse" x="4" y="4" width="16" height="16" mask-type="alpha">
    <path fill="#d9d9d9" d="M4 4h16v16H4z" />
  </mask>
  <g mask="url(#A)">
    <path
      d="M15.324 5.049l-4.709 4.126c-.512.442-1.177.688-1.792.688H7.389V5.049H4.881v13.754h1.382c.768 0 1.485-.442 1.894-1.081.256-.442.41-1.326.307-1.916-.051-1.326-.256-1.67-.256-1.67 0 .933-.973.982-.973.982.717-.639.307-1.179.307-1.179-1.28.835-1.587-.049-1.587-.147.051.049.41.295 1.126-.589.717-.933 1.689-2.554 2.304-2.947.614-.442 1.229-.393 1.229-.393s.307-.442 1.229-.786 1.433.147 1.433.147c-.87.688-2.15 1.867-2.201 3.488-.051 1.326 2.969 3.635 2.406 7.025.307-.786.461-1.523.307-2.505-.102-.786-.614-2.358-.614-2.358l2.867 3.782h3.174l-6.245-8.203 6.194-5.403h-3.839z"
      fill="#fff"
    />
  </g>
</svg>
